X: 879
T: Seneca Squaredance
B: jims roots
M:4/4
L:1/8
R: barndance
Q: 1/4=100
K:Gmaj
V:1 
GA|:"G"[B4D] [B3D] B|d2B2 BA G2|[B4D] [d3D]B|"D"ABAG E2D2|
"G"[B4D] [B3D] B|d2B2 BA G2|"D"ABAG E2F2|[1 "G"[G3B,]AG2 GA:|[2 "G"[G3B,]AG2 Bd||
|:"G"[g4B] gage|d2B2 BA G2|[g4B] gfga| "Em"be2ee3f|
"C"gaba g2 gd|"G"eged BA G2|"D"ABAG E2F2|[1 "G"[G3B,]AG2 Bd:|[2 "G"[G3B,]AG2 GA|]
% abcbook-tune_id 6298c287295fb6254cc2a88f


% abcbook-boost 0
% abcbook-tablature 
% abcbook-transpose 
% abcbook-lastupdated 1654178440258
% abcbook-soundfonts 
% abcbook-repeats 1


